X: 9
T:Sailor's Hornpipe. JNu.09
T:Roxburgh Castle,aka. JNu.09
M:4/4
L:1/8
Q:180
C:Roxburgh Castle,aka.
S:James Nuttall MS,c1830,Rossendale,East Lancs.
R:Hornpipe
O:England
A:East Lancashire
N:A good example of the blurring of the boundaries between
N:hornpipes,breakdowns,reels and rants..CGP
Z:vmp.Manchester Morris Men
K:Bb
FA|BABd fdBd|edeg fdBd|e2ge d2fd|cBcd cedc|!
B2Bd fdBd|edeg fdBd|bac'a bgfe|"s'qu's in ms"d2B2B2:|!
|:z2|bfdf gfdf|bfdf gfed|e2c'c' d2bb|cBcd cedc|!
B2Bd fdBd|edeg fdBd|bac'a bgfe|"s'qu's in ms"d2B2B2:|]
